src/food-drink/drink/1F9CA.svg

<svg id="emoji" viewBox="0 0 72 72" xmlns="http://www.w3.org/2000/svg">
  <g id="grid">
    <path fill="#b3b3b3" d="M68,4V68H4V4H68m4-4H0V72H72V0Z"/>
    <path fill="none" stroke="#00a5ff" stroke-miterlimit="10" stroke-width="0.1" d="M12.923,10.9583H59.0769A1.9231,1.9231,0,0,1,61,12.8814V59.0352a1.9231,1.9231,0,0,1-1.9231,1.9231H12.9231A1.9231,1.9231,0,0,1,11,59.0352V12.8813A1.923,1.923,0,0,1,12.923,10.9583Z"/>
    <rect x="16" y="4" rx="2.2537" width="40" height="64" fill="none" stroke="#00a5ff" stroke-miterlimit="10" stroke-width="0.1"/>
    <rect x="16" y="4" rx="2.2537" width="40" height="64" transform="translate(72) rotate(90)" fill="none" stroke="#00a5ff" stroke-miterlimit="10" stroke-width="0.1"/>
    <circle cx="36" cy="36" r="29" fill="none" stroke="#00a5ff" stroke-miterlimit="10" stroke-width="0.1"/>
  </g>
  <g id="color">
    <path fill="#92d3f5" d="M36.6352,54.5916,58.47,48.923,58.318,20.5487l-21.7013,4.55-21.85-5.0948V44.91a5.0437,5.0437,0,0,0,3.637,4.9572l18.1976,4.7244V29.2336"/>
    <path fill="#61b2e4" d="M36.6352,54.5916l20.1764-5.2381A2.2146,2.2146,0,0,0,58.47,47.21V22.7943a2.2148,2.2148,0,0,0-2.7176-2.1569L36.6167,25.0987"/>
    <path fill="#fff" d="M36.6182,43.7113l-.26,10.4178-5.3535-.7313L15.076,33.0374V20.5487l2.955.2794L36.6182,43.7113"/>
    <polyline fill="#92d3f5" points="14.767 20.004 36.808 14.309 57.949 20.579"/>
    <polyline fill="#92d3f5" points="57.398 20.254 36.451 25.368 14.745 19.869"/>
  </g>
  <g id="line">
    <path fill="none" stroke="#000" stroke-linecap="round" stroke-linejoin="round" stroke-width="2.069" d="M36.6013,29.2336v22.644a2.0994,2.0994,0,0,1-2.627,2.032l-1.1441-.297-.1645-.0427L18.151,49.8016a4.6932,4.6932,0,0,1-3.3843-4.6127v-22.54a2.0993,2.0993,0,0,1,2.5761-2.0445l17.7214,4.1321a6.8379,6.8379,0,0,0,3.105,0l17.7245-4.1322A2.0994,2.0994,0,0,1,58.47,22.649v24.65a2.1,2.1,0,0,1-1.5719,2.032L37.3243,54.4127a2.9706,2.9706,0,0,1-1.3844.0261L33.9743,53.91"/>
    <path fill="none" stroke="#000" stroke-linecap="round" stroke-linejoin="round" stroke-width="2.069" d="M14.7451,24.4107l.0168-3.4268a1.2719,1.2719,0,0,1,.9537-1.2252L34.83,14.82a7.0928,7.0928,0,0,1,3.926.1089l18.5261,5.0135A1.6083,1.6083,0,0,1,58.47,21.4952v2.6654"/>
  </g>
</svg>

<svg viewBox="0 0 72 72" xmlns="http://www.w3.org/2000/svg"><path fill="#b3b3b3" d="M68 4v64H4V4h64m4-4H0v72h72V0z"/><path fill="none" stroke="#00a5ff" stroke-miterlimit="10" stroke-width=".1" d="M12.923 10.958h46.154A1.923 1.923 0 0161 12.881v46.154a1.923 1.923 0 01-1.923 1.923H12.923A1.923 1.923 0 0111 59.035V12.881a1.923 1.923 0 011.923-1.923z"/><rect x="16" y="4" rx="2.254" width="40" height="64" fill="none" stroke="#00a5ff" stroke-miterlimit="10" stroke-width=".1"/><rect x="16" y="4" rx="2.254" width="40" height="64" transform="rotate(90 36 36)" fill="none" stroke="#00a5ff" stroke-miterlimit="10" stroke-width=".1"/><circle cx="36" cy="36" r="29" fill="none" stroke="#00a5ff" stroke-miterlimit="10" stroke-width=".1"/><g stroke-linecap="round" stroke-miterlimit="10" stroke-width="6" stroke="#fff" fill="none" stroke-linejoin="round"><path d="M36.601 29.234v22.644a2.1 2.1 0 01-2.627 2.032l-1.144-.297-.164-.043-14.515-3.768a4.693 4.693 0 01-3.384-4.613v-22.54a2.1 2.1 0 012.576-2.045l17.721 4.133a6.838 6.838 0 003.105 0l17.725-4.133a2.1 2.1 0 012.576 2.045v24.65a2.1 2.1 0 01-1.572 2.032l-19.574 5.082a2.97 2.97 0 01-1.384.026l-1.966-.529"/><path d="M14.745 24.41l.017-3.426a1.272 1.272 0 01.954-1.225L34.83 14.82a7.093 7.093 0 013.926.109l18.526 5.013a1.608 1.608 0 011.188 1.553v2.666"/></g><path fill="#92d3f5" d="M36.635 54.592l21.835-5.669-.152-28.374-21.701 4.55-21.85-5.095V44.91a5.044 5.044 0 003.637 4.957L36.6 54.592V29.234"/><path fill="#61b2e4" d="M36.635 54.592l20.177-5.238a2.215 2.215 0 001.658-2.144V22.794a2.215 2.215 0 00-2.718-2.157L36.617 25.1"/><path fill="#fff" d="M36.618 43.711l-.26 10.418-5.353-.731-15.929-20.36v-12.49l2.955.28 18.587 22.883"/><path fill="#92d3f5" d="M14.767 20.004l22.041-5.695 21.141 6.27"/><path fill="#92d3f5" d="M57.398 20.254l-20.947 5.114-21.706-5.499"/><g fill="none" stroke="#000" stroke-linecap="round" stroke-linejoin="round" stroke-width="2.069"><path d="M36.601 29.234v22.644a2.1 2.1 0 01-2.627 2.032l-1.144-.297-.164-.043-14.515-3.768a4.693 4.693 0 01-3.384-4.613v-22.54a2.1 2.1 0 012.576-2.045l17.721 4.133a6.838 6.838 0 003.105 0l17.725-4.133a2.1 2.1 0 012.576 2.045v24.65a2.1 2.1 0 01-1.572 2.032l-19.574 5.082a2.97 2.97 0 01-1.384.026l-1.966-.529"/><path d="M14.745 24.41l.017-3.426a1.272 1.272 0 01.954-1.225L34.83 14.82a7.093 7.093 0 013.926.109l18.526 5.013a1.608 1.608 0 011.188 1.553v2.666"/></g></svg>
